src/lib/packages/icons/src/assets/filled/pen-tool.svg

<svg xmlns="http://www.w3.org/2000/svg" width="24" height="24" fill="none"><path fill="currentColor" d="m20.71 17.12-3.59 3.59a.998.998 0 0 1-1.41 0l-1.968-1.968a.3.3 0 0 1 0-.424l4.576-4.576a.3.3 0 0 1 .424 0l1.968 1.968a.998.998 0 0 1 0 1.41Zm-2.961-5.135L16.48 6.91a3.014 3.014 0 0 0-2.42-2.24L4.15 3.01l-.027.053L9.62 8.56c.5-.15 1.05-.02 1.44.38.59.58.59 1.53 0 2.12-.58.59-1.54.59-2.12 0-.4-.39-.53-.95-.38-1.44L3 4.06l-.005.002L4.67 14.06c.2 1.18 1.08 2.13 2.24 2.42l5.075 1.269a.298.298 0 0 0 .285-.079l5.4-5.4a.303.303 0 0 0 .079-.285Z"/></svg>

<svg width="24" height="24" viewBox="0 0 24 24" fill="none" xmlns="http://www.w3.org/2000/svg">
<path d="M20.71 17.12L17.12 20.71C16.731 21.099 16.099 21.099 15.71 20.71L13.742 18.742C13.625 18.625 13.625 18.435 13.742 18.318L18.318 13.742C18.435 13.625 18.625 13.625 18.742 13.742L20.71 15.71C21.099 16.099 21.099 16.731 20.71 17.12ZM17.749 11.985L16.48 6.91C16.19 5.75 15.24 4.87001 14.06 4.67001L4.14999 3.01001C4.13599 3.03701 4.137 3.03599 4.123 3.06299L9.62 8.56C10.12 8.41 10.67 8.54 11.06 8.94C11.65 9.52 11.65 10.47 11.06 11.06C10.48 11.65 9.52 11.65 8.94 11.06C8.54 10.67 8.41 10.11 8.56 9.62L3 4.06C2.996 4.062 3 4.06001 2.995 4.06201L4.67 14.06C4.87 15.24 5.75 16.19 6.91 16.48L11.985 17.749C12.087 17.775 12.195 17.745 12.27 17.67L17.67 12.27C17.744 12.196 17.774 12.087 17.749 11.985Z" fill="currentColor"/>
</svg>
